svg/servers.svg

<svg xmlns="http://www.w3.org/2000/svg" width="24" height="24" viewBox="0 0 24 24"><title>px_servers_24px</title><path d="M4 1h16a1 1 0 0 1 1 1v4a1 1 0 0 1-1 1H4a1 1 0 0 1-1-1V2a1 1 0 0 1 1-1m0 8h16a1 1 0 0 1 1 1v4a1 1 0 0 1-1 1H4a1 1 0 0 1-1-1v-4a1 1 0 0 1 1-1m0 8h16a1 1 0 0 1 1 1v4a1 1 0 0 1-1 1H4a1 1 0 0 1-1-1v-4a1 1 0 0 1 1-1M9 5h1V3H9v2m0 8h1v-2H9v2m0 8h1v-2H9v2M5 3v2h2V3H5m0 8v2h2v-2H5m0 8v2h2v-2z"/><path fill="none" d="M0 0h24v24H0z"/></svg>

<svg xmlns="http://www.w3.org/2000/svg" width="24" height="24" viewBox="0 0 24 24">
  <path d="M4,1H20a1,1,0,0,1,1,1V6a1,1,0,0,1-1,1H4A1,1,0,0,1,3,6V2A1,1,0,0,1,4,1M4,9H20a1,1,0,0,1,1,1v4a1,1,0,0,1-1,1H4a1,1,0,0,1-1-1V10A1,1,0,0,1,4,9m0,8H20a1,1,0,0,1,1,1v4a1,1,0,0,1-1,1H4a1,1,0,0,1-1-1V18a1,1,0,0,1,1-1M9,5h1V3H9V5m0,8h1V11H9v2m0,8h1V19H9v2M5,3V5H7V3H5m0,8v2H7V11H5m0,8v2H7V19Z"/>
  <rect width="24" height="24" fill="none"/>
</svg>
